X: 35023
T: Rollicking Boys Of Tandragee, The
R: jig
M: 6/8
K: Eminor
BBB EDE|BAB d2 B|ABA FED|FED FGA|
BBB EDE|BAB d2 f|edB AFA|BEE E3:|
Bee efe|def afe|edd dcd|Bcd dBA|
Bee efe|def afe|edB AFA|BEE E3:|

